src/images/gamePlatforms/switch_icon.svg

<svg width="50" height="50" viewBox="0 0 50 50" fill="none" xmlns="http://www.w3.org/2000/svg">
<path fill-rule="evenodd" clip-rule="evenodd" d="M29.0824 25.0118C29.0824 11.6068 29.1128 0.615071 29.1534 0.584652C29.1838 0.544092 31.2118 0.513672 33.6454 0.513672C37.1741 0.513672 38.2692 0.544092 38.979 0.665771C44.272 1.57837 48.2976 5.56337 49.3015 10.8463C49.4434 11.5865 49.4637 13.3204 49.4637 24.951C49.4637 37.3758 49.4784 38.8373 49.0867 40.1802C49.019 40.4122 48.9392 40.6406 48.8452 40.9214C48.6728 41.4182 48.3382 42.2193 48.0847 42.6959C46.1074 46.4172 42.4773 48.9218 38.3604 49.3882C37.387 49.4896 29.5184 49.5302 29.2446 49.4288C29.0925 49.368 29.0824 47.127 29.0824 25.0118ZM43.3899 25.8331C42.8626 24.2919 41.5647 23.0852 39.9828 22.6695C37.4478 22.0104 34.8115 23.4705 34.051 25.9548C33.7975 26.7457 33.7873 28.0436 34.0104 28.8143C34.7506 31.329 37.4478 32.8601 39.9828 32.201C41.5444 31.7853 42.7612 30.6597 43.3797 29.0576C43.7143 28.1856 43.7245 26.7863 43.3899 25.8331Z" fill="#EBEBF5"/>
<path d="M11.8547 10.6659C11.2159 10.7876 10.2425 11.2743 9.72533 11.7306C8.66064 12.6533 8.13336 13.9614 8.21448 15.5027C8.25504 16.3037 8.30574 16.5166 8.63022 17.1656C9.10679 18.1492 9.82673 18.8691 10.8103 19.3558C11.4897 19.6904 11.6621 19.731 12.5442 19.7614C13.3453 19.7918 13.6292 19.7614 14.1666 19.5789C16.367 18.8387 17.6953 16.6992 17.3202 14.5089C16.8841 11.903 14.41 10.1589 11.8547 10.6659Z" fill="#EBEBF5"/>
<path fill-rule="evenodd" clip-rule="evenodd" d="M10.9826 0.677002C6.10524 1.54904 2.18108 5.15886 0.944005 9.90436C0.497847 11.618 0.467427 12.6219 0.518127 25.9153C0.548547 38.1238 0.558687 38.4078 0.761486 39.3508C1.88702 44.4309 5.49684 48.0509 10.6277 49.2474C11.2969 49.3995 12.1486 49.4299 17.6344 49.4603C23.3127 49.5009 23.9009 49.4907 24.053 49.3386C24.2051 49.1865 24.2152 47.2295 24.2152 25.0433C24.2152 8.5963 24.1848 0.849381 24.1138 0.707422C24.0124 0.524903 23.84 0.514763 17.898 0.524903C13.0714 0.535043 11.6214 0.565462 10.9826 0.677002ZM20.1592 45.5564L16.0323 45.5057C12.2298 45.4652 11.8242 45.4449 11.0637 45.2522C7.79861 44.4106 5.37516 41.8959 4.69579 38.6207C4.47271 37.5966 4.47271 12.3684 4.68565 11.3645C5.29404 8.51519 7.27133 6.15257 9.93814 5.08788C11.2766 4.55046 11.8952 4.48962 16.235 4.47948L20.1592 4.46934V45.5564Z" fill="#EBEBF5"/>
</svg>

<svg width="50" height="50" fill="none" xmlns="http://www.w3.org/2000/svg"><path fill-rule="evenodd" clip-rule="evenodd" d="M29.082 25.012c0-13.405.03-24.397.071-24.427.03-.04 2.059-.071 4.492-.071 3.53 0 4.624.03 5.334.152 5.293.912 9.319 4.897 10.322 10.18.142.74.163 2.474.163 14.105 0 12.425.014 13.886-.377 15.23-.068.231-.148.46-.242.74a15.075 15.075 0 0 1-.76 1.775c-1.978 3.721-5.608 6.226-9.725 6.692-.973.102-8.842.142-9.115.04-.152-.06-.163-2.301-.163-24.416zm14.308.821a4.961 4.961 0 0 0-3.407-3.163c-2.535-.66-5.171.8-5.932 3.285-.254.79-.264 2.089-.04 2.86.74 2.514 3.437 4.045 5.972 3.386 1.561-.416 2.778-1.541 3.397-3.143.334-.872.344-2.272.01-3.225z" fill="#EBEBF5"/><path d="M11.855 10.666c-.64.122-1.613.608-2.13 1.065-1.064.922-1.592 2.23-1.51 3.772.04.8.09 1.014.415 1.663a4.617 4.617 0 0 0 2.18 2.19c.68.334.852.375 1.734.405.801.03 1.085 0 1.623-.182 2.2-.74 3.528-2.88 3.153-5.07-.436-2.606-2.91-4.35-5.465-3.843z" fill="#EBEBF5"/><path fill-rule="evenodd" clip-rule="evenodd" d="M10.983.677C6.105 1.549 2.18 5.159.944 9.904.498 11.618.467 12.622.518 25.915c.03 12.209.04 12.493.243 13.436 1.126 5.08 4.736 8.7 9.867 9.896.669.153 1.52.183 7.006.213 5.679.04 6.267.03 6.419-.121.152-.152.162-2.11.162-24.296 0-16.447-.03-24.194-.101-24.336-.102-.182-.274-.192-6.216-.182-4.827.01-6.277.04-6.915.152zm9.176 44.88-4.127-.051c-3.802-.04-4.208-.061-4.968-.254-3.265-.841-5.689-3.356-6.368-6.631-.223-1.024-.223-26.253-.01-27.257.608-2.849 2.585-5.211 5.252-6.276 1.339-.538 1.957-.598 6.297-.609l3.924-.01v41.087z" fill="#EBEBF5"/></svg>
